svgs/cuberite.svg

<svg width="192" height="192" viewBox="0 0 192 192" fill="none" xmlns="http://www.w3.org/2000/svg">
<path d="M96 22L28 61.5038M96 22L164 61.5038M96 22V54.2707M28 61.5038V131.609M28 61.5038L96 95.4436M28 131.609L96 170M28 131.609L57.5194 117.143M96 170L164 131.609M96 170V95.4436M164 61.5038V131.609M164 61.5038L96 95.4436M164 131.609L135.008 117.143" stroke="black" stroke-width="12" stroke-linecap="round" stroke-linejoin="round"/>
</svg>

<svg xmlns="http://www.w3.org/2000/svg" width="192" height="192" fill="none"><path stroke="#000" stroke-linecap="round" stroke-linejoin="round" stroke-width="12" d="M96 22 28 61.504M96 22l68 39.504M96 22v32.27m-68 7.234v70.105m0-70.105 68 33.94m-68 36.165L96 170m-68-38.391 29.52-14.466M96 170l68-38.391M96 170V95.444m68-33.94v70.105m0-70.105-68 33.94m68 36.165-28.992-14.466"/></svg>
